!!!!SEGMENT: pl-wtm--r-1143-1--007_dobrzynski-ignacy-feliks--studium-na-temat-oryginalny-op-62-stesso-tempo.krn
!!!cenid: 18xx:1754
!!!COM: Dobrzyński, Ignacy Feliks
!!!COM-rismID:
!!!CDT: 1807/02/15-1867/10/09
!!!CNT: Polish
!!!OPR: Studium na temat oryginalny op. 62
!!!OTL: Stesso tempo
!!!OMV: 007
!!!PDT: 1867
!!!AGN: Secular; Variations
!!!SMS-siglum: PL-Wtm
!!!SMS-shelfmark: R 1143/1
!!!SMS-shelfwork: 001-007 M
!!!SMS-variant:
!!!SMS-altvar:
!!!NIFC-rismSourceID: 1001057385
!!!NIFC-islandoraID:
!!!URL-pdf-islandora:
!!!URL-scan:
!!!ONB-nifc: UWAGA: numeracja części zgodna z numerami w źródle. Na podstawie partytury (folder r1143-1)
!!!AIN: 1 cello 1 viola 2 violn
!!!key:
**kern	**dynam	**kern	**kern	**kern	**dynam
*part4	*part4	*part3	*part2	*part1	*part1
*staff4	*	*staff3	*staff2	*staff1	*
*Icello	*	*Iviola	*Ivioln	*Ivioln	*
*I"Violoncello.	*	*I"Viola.	*I"Violino 2do	*I"Violino 1o	*
*	*	*	*mI"Violino II	*mI"Violino I	*
*I'vlc	*	*I'vla	*I'vl 2	*I'vl 1	*
*	*	*	*mI'vl II	*mI'vl I	*
*clefF4	*	*clefC3	*clefG2	*clefG2	*
*k[f#c#g#]	*	*k[f#c#g#]	*k[f#c#g#]	*k[f#c#g#]	*
*A:	*	*A:	*A:	*A:	*
*M4/4	*	*M4/4	*M4/4	*M4/4	*
*met(c)	*	*met(c)	*met(c)	*met(c)	*
=1	=1	=1	=1	=1	=1
!	!	!	!	!LO:TX:a:i:t=N=o 7. Steſso tempo	!
4r	.	1ryy	1ryy	(>2e/	mf
!LO:TX:a:i:t=Marcato	!	!	!	!	!
(4.e\	fz	.	.	.	.
.	.	.	.	4f#/	.
8d#X'\)	.	.	.	.	.
[4dn^<\	.	.	.	4g#/)	.
=2	=2	=2	=2	=2	=2
8d\]	.	1ryy	1ryy	(4a\	.
4c#^<\	.	.	.	.	.
.	.	.	.	4b\	.
[8B^<\	.	.	.	.	.
8B\L]	>	.	.	2cc#\)	>
(8A\	.	.	.	.	.
8G#\	.	.	.	.	.
[8F#\J	]	.	.	.	]
=3	=3	=3	=3	=3	=3
8F#\L])	.	1ryy	1ryy	(2dd\	<
(8E\	.	.	.	.	.
8G#\	<	.	.	.	.
[8B\J	.	.	.	.	.
8B\L])	.	.	.	4cc#\	.
(8A\	.	.	.	.	.
8c#\	.	.	.	4a\)	[
[8f#\J	[[	.	.	.	.
=4	=4	=4	=4	=4	=4
8f#\L])	>	1ryy	1ryy	(2b\	>
(8e\	.	.	.	.	.
8d#X\	.	.	.	.	.
8dn\J)	.	.	.	.	.
(8c#\L	.	.	.	4a\)	]
8e\J	] p	.	.	.	.
4A\)	.	.	.	4r	.
=5	=5	=5	=5	=5	=5
(2E\	mf	1ryy	1ryy	4r	.
.	.	.	.	(4.ee\	fz
4F#\	.	.	.	.	.
.	.	.	.	8dd#X'\)	.
4G#\)	.	.	.	[4ddn^<\	.
=6	=6	=6	=6	=6	=6
(4A^\	.	1ryy	1ryy	8dd\]	.
.	.	.	.	4cc#^<\	.
4B^\	.	.	.	.	.
.	.	.	.	[8b\	.
2c#^<\)	.	.	.	8b\L]	>
.	.	.	.	(8a\	.
.	.	.	.	8g#\	.
.	.	.	.	[>8f#\J	]
!!LO:LB:g=original
=7	=7	=7	=7	=7	=7
(2d\	.	1ryy	1ryy	8f#/L]	.
.	.	.	.	8e/	.
.	.	.	.	8g#/	<
.	.	.	.	[>8b/J)	.
4c#\	.	.	.	(8b\L]	.
.	.	.	.	8a\	.
4A\)	.	.	.	8cc#\	.
.	.	.	.	[8ff#\J	[[
=8	=8	=8	=8	=8	=8
(2B^<\	.	1ryy	1ryy	8ff#\L])	>
.	.	.	.	(8ee\	.
.	.	.	.	8dd#X\	.
.	.	.	.	8ddn\J)	]
4A\)	.	.	.	(8cc#\L	p
.	.	.	.	8ee\J	.
4r	.	.	.	4a\)	.
=9	=9	=9	=9	=9	=9
8r	p	1ryy	1ryy	(>2a/	p
!LO:TX:a:t=P:problem=znaczek nad nutą - odwrócone smyczkowanie?	!	!	!	!	!
!LO:TX:b:i:t=ma espres&colon;	!	!	!	!LO:TX:b:i:t=dalente	!
(8F#\L	.	.	.	.	.
8A\	.	.	.	.	.
[8c#\J	.	.	.	.	.
8c#\])	.	.	.	4g#/	.
4B^<\	.	.	.	.	.
.	.	.	.	4f#/)	.
[8A^<\	.	.	.	.	.
=10	=10	=10	=10	=10	=10
8A\]	.	1ryy	1ryy	(>4e#X/	.
4G#^<\	.	.	.	.	.
.	.	.	.	4f#/	.
(8F#\	.	.	.	.	.
8E#X\L)	.	.	.	2g#/)	.
(8G#\	.	.	.	.	.
8c#\	.	.	.	.	.
8e#X\J	.	.	.	.	<
*clefG2	*	*	*	*	*
=11	=11	=11	=11	=11	=11
8ff#'\)	<	1ryy	1ryy	(4a\	.
4ff#\	.	.	.	.	.
.	.	.	.	4cc#\)	[
([8aa\	[	.	.	.	.
8aa\L]	.	.	.	2dd#Xtt\	f
8ff#\	f	.	.	.	.
8bb\	.	.	.	.	.
8aa\J)	.	.	.	.	.
.	.	.	.	(16qqcc#/LL	.
.	.	.	.	16qqdd#/JJ)	.
=12	=12	=12	=12	=12	=12
(8gg#\L	>	1ryy	1ryy	(2ee\	>
8bb\	.	.	.	.	.
8gg#\	.	.	.	.	.
[8ee\J	.	.	.	.	.
8ee\])	.	.	.	4e/)	.
4dd#X^<\	]	.	.	.	.
.	.	.	.	4r	]
(8ddn\	.	.	.	.	.
!!LO:LB:g=original
=13	=13	=13	=13	=13	=13
8cc#\L)	mf	1ryy	1ryy	2e/	mf
8a\J	.	.	.	.	.
(4.ee^<\	fz	.	.	.	.
.	.	.	.	(4f#/	.
8dd#X'\)	.	.	.	.	.
[4ddn^<\	.	.	.	4g#/)	.
=14	=14	=14	=14	=14	=14
8dd\]	.	1ryy	1ryy	(4a\	.
4cc#^<\	.	.	.	.	.
.	.	.	.	4b\)	.
[8b^<\	.	.	.	.	.
8b/L]	>	.	.	2cc#\	.
(8a/	>	.	.	.	.
8g#/	.	.	.	.	.
[8f#/J	]]	.	.	.	.
=15	=15	=15	=15	=15	=15
8f#/L])	<	1ryy	1ryy	2dd\	>
(8e#X/	.	.	.	.	.
8g#/	.	.	.	.	.
[>8b/J)	[	.	.	.	.
8b\L]	>	.	.	(4cc#\	]
8a\	.	.	.	.	.
8cc#\	.	.	.	4a\)	.
8ff#\J	]	.	.	.	.
*clefF4	*	*	*	*	*
=16	=16	=16	=16	=16	=16
8r	p	1ryy	1ryy	(2b^<\	p
(8d^^\L	.	.	.	.	.
8F#\	.	.	.	.	.
8G#\J)	.	.	.	.	.
(8A'\L	.	.	.	4a\)	.
8E'\J	.	.	.	.	.
4AA'/)	.	.	.	4r	.
=17	=17	=17	=17	=17	=17
!	!	!	!	!LO:TX:a:t=P:problem=znaczek nad nutą - odwrócone smyczkowanie?	!
2A\	p	1ryy	1ryy	8r	.
!LO:TX:b:i:t=dolente	!	!	!	!	!
.	.	.	.	(8f#\L	p
!	!	!	!	!LO:TX:b:i:t=ma espres&colon;	!
.	.	.	.	8a\	.
.	.	.	.	[8cc#\J	.
(4G#\	.	.	.	8cc#\])	.
.	.	.	.	4b^<\	.
4F#\)	.	.	.	.	.
.	.	.	.	[8a^<\	.
=18	=18	=18	=18	=18	=18
(4E#X\	.	1ryy	1ryy	8a/]	.
.	.	.	.	4g#^</	.
4F#\)	.	.	.	.	.
.	.	.	.	(8f#/	.
2G#\	.	.	.	8e#X/L)	.
.	.	.	.	(8g#/J	.
.	.	.	.	8cc#\L	.
.	.	.	.	8ee#X\J	.
!!LO:PB:g=original
=19	=19	=19	=19	=19	=19
4A\	<	1r	1r	8ff#'\)	<
.	.	.	.	4ff#^<\	.
4c#\	.	.	.	.	[
.	[	.	.	([8aa^<\	.
2d#Xtt\	f	.	.	8aa\L]	f
.	.	.	.	8ff#\	.
.	.	.	.	8bb\	.
.	.	.	.	8aa\J)	.
(16qqc#/LL	.	.	.	.	.
16qqd#/JJ)	.	.	.	.	.
=20	=20	=20	=20	=20	=20
(2e^<\	.	1r	1r	(8gg#\L	>
.	.	.	.	8bb\	.
.	.	.	.	8gg#\	.
.	.	.	.	[8ee\J)	.
4E\)	.	.	.	8ee\]	.
.	.	.	.	4dd#X^<\	]
4r	.	.	.	.	.
.	.	.	.	(8ddn\	.
=21	=21	=21	=21	=21	=21
2E\	mf	1r	1r	8cc#'\L)	mf
.	.	.	.	8a'\J	.
.	.	.	.	(4.ee^<\	fz
(4F#\	.	.	.	.	.
.	.	.	.	8dd#X'\)	.
4G#\)	.	.	.	[4ddn^<\	.
=22	=22	=22	=22	=22	=22
(4A\	.	1r	1r	8dd\]	.
.	.	.	.	4cc#^<\	.
4B\)	.	.	.	.	.
.	.	.	.	[8b^<\	.
2c#^<\	.	.	.	8b/L]	.
!	!	!	!	!	!LO:HP:a
.	.	.	.	(8a/	>
.	.	.	.	8g#/	.
.	.	.	.	[8f#/J	]]
=23	=23	=23	=23	=23	=23
2d\	>	1r	1r	8f#/L])	<
.	.	.	.	(8e#X/	.
.	.	.	.	8g#/	.
.	.	.	.	[8b/J	[
(4c#\	]	.	.	8b\L])	.
.	.	.	.	(8a\	>
4A\)	.	.	.	8cc#\	.
.	.	.	.	8ff#\J)	]]
=24	=24	=24	=24	=24	=24
(2B^<\	.	1r	1r	8r	.
.	.	.	.	(8dd\L	p
.	.	.	.	8f#\	.
.	.	.	.	8g#\J)	.
4A\)	.	.	.	(8a'/L	.
.	.	.	.	8e'/J	.
4r;<	.	.	.	4A/;)	.
==	==	==	==	==	==
*-	*-	*-	*-	*-	*-
!!!system-decoration: {(s1,s2,s3,s4)}
!!!RDF**kern: > = above
!!!RDF**kern: < = below
!!!filter-modern: sic -sq | autostem -r | shed -e "s/TX(.*):t=P:/tx$1:t=P:/LG"  | shed -k -e "s/yy//" | shed -k -e "s/([^a-gA-Gn#X-])[<>]/$1/g" | modori -m |
!!!ENC-modern: Leszek Kubiak
!!!END-modern: 2022-07-29
!!!ENC: Marta Lawrence
!!!END: 2021-04-12
!!!ENC: Andrzej Gręziak
!!!END: 2021-04-06
